assets/img/about/web.svg

<svg fill="none" height="29" viewBox="0 0 29 29" width="29" xmlns="http://www.w3.org/2000/svg"><path d="m14.5 0c-8.004 0-14.5 6.38299-14.5 14.2477 0 7.8648 6.496 14.2478 14.5 14.2478s14.5-6.383 14.5-14.2478c0-7.86471-6.496-14.2477-14.5-14.2477zm-11.6 14.2477c0-.8691.116-1.7239.3045-2.5361l6.931 6.8105v1.4247c0 1.5673 1.305 2.8496 2.9 2.8496v2.7498c-5.6985-.7124-10.1355-5.4996-10.1355-11.2985zm20.1405 7.6938c-.377-1.154-1.45-1.9947-2.755-1.9947h-1.45v-4.2743c0-.7836-.6525-1.4248-1.45-1.4248h-8.7v-2.8495h2.9c.7975 0 1.45-.6412 1.45-1.42478v-2.84955h2.9c1.595 0 2.9-1.2823 2.9-2.84955v-.58415c4.2485 1.68123 7.2645 5.78458 7.2645 10.55753 0 2.9636-1.1745 5.6706-3.0595 7.6938z" fill="#c6c6c6"/></svg>

<svg width="29" height="29" viewBox="0 0 29 29" fill="none" xmlns="http://www.w3.org/2000/svg">
<path d="M14.5 0C6.496 0 0 6.38299 0 14.2477C0 22.1125 6.496 28.4955 14.5 28.4955C22.504 28.4955 29 22.1125 29 14.2477C29 6.38299 22.504 0 14.5 0ZM2.9 14.2477C2.9 13.3786 3.016 12.5238 3.2045 11.7116L10.1355 18.5221V19.9468C10.1355 21.5141 11.4405 22.7964 13.0355 22.7964V25.5462C7.337 24.8338 2.9 20.0466 2.9 14.2477ZM23.0405 21.9415C22.6635 20.7875 21.5905 19.9468 20.2855 19.9468H18.8355V15.6725C18.8355 14.8889 18.183 14.2477 17.3855 14.2477H8.6855V11.3982H11.5855C12.383 11.3982 13.0355 10.757 13.0355 9.97342V7.12387H15.9355C17.5305 7.12387 18.8355 5.84157 18.8355 4.27432V3.69017C23.084 5.3714 26.1 9.47475 26.1 14.2477C26.1 17.2113 24.9255 19.9183 23.0405 21.9415Z" fill="#C6C6C6"/>
</svg>
